!!!COM: Claude Debussy
!!!CNT: Francais
!!!TXO: Francais
!!!OPR: Ariettes Oublie/es
!!!ONM: No. 1
!!!OTL: C'est l'Extase
!!!LYR: Paul Verlaine
!!!ENC: Jacob Pegg
!!!YOR: Claude Debussy: Songs 1880-1904, Edited by Rita Benton
!!!YOR: New York: Dover publications, inc., 1981
!!!YOR: ISBN 0-486-24131-9
!!!ODT: 1887/
!!NB: Vocal melody and text only encoded.
!!NB: First instance of melodic material only encoded.
**kern	**silbe
*clef G2	*
*k[f#c#g#d#]	*
*M3/8	*
*MM30	*
!! created: 6/25/03 21:58
!! last edited: 7/10/03 10:42
!! time (min) : input notes 24, words 8.  check : notes 8, words 7.
!! total edit time: about 54 min.
=3	=3
8r	.
{8a	{C'est
8g#	l'ex-
=4	=4
8.g#	-ta-
16f#	-se
16e	lan-
16d#	-gou-
=5	=5
8d#	-reu-
4c#}	-se,}
=6	=6
8r	.
16r	.
{16c#	{C'est
16f#	la
16a	fa-
=7	=7
4cc#	-ti-
16b#	-gue a-
16g#	-mou-
=8	=8
4cc#	-reu-
8b#	|
=9	=9
4bn}	-se,}
8r	.
=10	=10
4.r	.
=11	=11
8r	.
{16g#	{C'est
16g#	tous
16g#	les
16g#	fris-
=12	=12
16a#	-sons
16a#	des
8a#}	bois}
{8a#	{Par-
=13	=13
16g#	-mi
16g#	l'e/-
8g#	-trein-
16g#	-te
16g#	des
=14	=14
[4a#	bri-
8a#]}	-ses.}
=15	=15
16r	.
{16b-	{C'est,
16r	.
16b-	vers
16b-	les
16b-	ra-
=16	=16
16ccn	-mu-
16gn	-res
8gn	gri-
8e}	-ses,}
=17	=17
{16dn	{Le
16dn	choeur
16dn	des
16dn	pe-
16dn	-ti-
16dn	-tes
=18	=18
4.d#}	voix.}
=19	=19
4.r	.
=20	=20
16r	.
{8g#	{O
16cc#	le
16cc#	fre^-
16g#	-le et
=21	=21
16g#	frais
16f#	mur-
8g#	-mu-
8g#}	-re,}
=22	=22
16r	.
{16g#	{Ce-
16g#	-la
16b	ga-
8a	-zouille
=23	=23
16g#	et
16dd#	su-
8dd#	-su-
16cc#}	-re,}
{16g#	{Ce-
=24	=24
[8gg#	-la
16gg#]	|
16ggn	|
16ff#	res-
16ee#	|
=25	=25
[8gg#	-sem-
16gg#]	-ble
16ggn	|
16ff#	au
16ee#	cri
=26	=26
8ee#}	doux}
{16dd#	{Que
16ddn	l'herbe
16cc#	a-
16b#	-gi-
=27	=27
16bn	-te/e
16a#	ex-
4a#	-pi-
=28	=28
4an}	-re.}
8r	.
=29	=29
8r	.
{16f#	{Tu
16f#	di-
8a}	-rais,
!! subbed 8a for written 4a to correct timing. Claude!
=30	=30
16r	.
{16f#	{sous
16f#	l'eau
16f#	qui
[8cc#	vi-
=31	=31
8cc#]	|
8a	|
8f#}	-re,}
=32	=32
{(16f#	{Le
16fn	|
16e	rou-
16d#	|
16dn	-lis
16c#)	|
=33	=33
(16f#	sourd
16fn	|
16e	des
16d#	|
16dn	cail-
16c#)	|
=34	=34
4f#}	-loux,}
8r	.
=35	=35
4.r	.
=36	=36
8r	.
8r	.
16r	.
{16f#	{Cette
=37	=37
8b	a^-
16b	-me
16b	qui
16b	se
16b	la-
=38	=38
8ccn	-men-
16ccn}	-te}
{16ccn	{En
16ccn	cet-
16ccn	-te
=39	=39
8dd	plain-
16b	-te
16f#	dor-
16f#	-man-
16d#}	-te,}
=40	=40
{16dn	{C'est
16a	la
8a	no^-
8fn}	-tre,}
=41	=41
24r	.
{(24a	{n'est~
24cc#)	~ce
8cc#}	pas?}
16r	.
{16cc#	{La
=42	=42
8cc#	mien-
8b}	-ne,}
16r	.
{16ddn	{dis,
=43	=43
24r	.
(24ffn	et
24aa)	la
[4aa	tien-
=44	=44
16aa]	|
16aa}	-ne}
{8gg#	{Dont
8ff#	s'ex-
=45	=45
8dd#	-ha-
16cc#	|
16a	-le
16g#	l'hum-
16f#	-ble an-
=46	=46
[8c#	-tien-
16c#]	|
16c#}	-ne,}
{16cn	{Par
16cn	ce
=47	=47
16c#	tie\-
16c#	-de
8c#}	soir,}
16r	.
{16e	{tout
=48	=48
4e}	bas.}
8r	.
*-	*-
